icons/icon-advertisement.svg

<svg viewBox="0 0 40 40" fill="none" xmlns="http://www.w3.org/2000/svg">
<g id="icon">
<path id="Vector 186" d="M14.3717 7.8481H13C10.2386 7.8481 8 10.0867 8 12.8481V31C8 33.7614 10.2386 36 13 36H27C29.7614 36 32 33.7614 32 31V12.8481C32 10.0867 29.7614 7.8481 27 7.8481H26.2655M14.3717 7.8481V7.8481C14.3717 9.74964 15.9132 11.2911 17.8147 11.2911H20.3186H22.8224C24.724 11.2911 26.2655 9.74964 26.2655 7.8481V7.8481M14.3717 7.8481H17.1034M26.2655 7.8481H23.3103M23.3103 7.8481V7.10345C23.3103 5.38946 21.9209 4 20.2069 4V4C18.4929 4 17.1034 5.38946 17.1034 7.10345V7.8481M23.3103 7.8481H17.1034" stroke='currentColor'  stroke-opacity="0.3" stroke-width="2.3"/>
</g>
</svg>

<svg xmlns="http://www.w3.org/2000/svg" fill="none" viewBox="0 0 40 40"><path stroke="currentColor" stroke-opacity=".3" stroke-width="2.3" d="M14.372 7.848H13a5 5 0 0 0-5 5V31a5 5 0 0 0 5 5h14a5 5 0 0 0 5-5V12.848a5 5 0 0 0-5-5h-.735m-11.893 0a3.443 3.443 0 0 0 3.443 3.443h5.007a3.443 3.443 0 0 0 3.444-3.443m-11.894 0h2.731m9.162 0H23.31m0 0v-.745a3.103 3.103 0 0 0-6.207 0v.745m6.207 0h-6.207"/></svg>
